public/svg/different/attention.svg

<svg width="101" height="113" viewBox="0 0 101 113" fill="none" xmlns="http://www.w3.org/2000/svg">
<path d="M3 93.5346L20.274 110.036L29.1324 102.9H63.5208C69.8428 102.9 75.886 100.298 80.2303 95.705L96.1968 78.8245C98.2801 76.6219 98.135 73.1344 95.876 71.1125C93.725 69.1874 90.4387 69.301 88.4258 71.37L80.8462 79.1609C74.4023 85.7843 65.5541 89.5208 56.3132 89.5208H48.621L45.0776 85.953L60.5821 81.4431C63.0803 80.7164 64.598 78.189 64.0655 75.6424C63.5831 73.3348 61.5486 71.6818 59.1912 71.6818H33.0278C27.6996 71.6818 22.5917 73.8078 18.8371 77.5883L3 93.5346Z" stroke="#434343" stroke-width="5" stroke-linejoin="round"/>
<path d="M88.8428 21.5629C89.3002 35.0098 66.9275 54.2149 55.6837 60.977C44.8209 54.0218 21.9551 38.9516 21.9531 21.5629C21.9515 7.58291 41.3902 -6.25876 55.6837 11.1307C71.1211 -6.25922 88.3854 8.11598 88.8428 21.5629Z" stroke="#A4BA04" stroke-width="5"/>
<path d="M73.2354 27.5338C73.4717 33.9987 61.9126 43.2319 56.1032 46.4829C50.4908 43.1391 38.6768 35.8938 38.6758 27.5338C38.6749 20.8127 48.7183 14.158 56.1032 22.5183C64.0792 14.1578 72.9991 21.069 73.2354 27.5338Z" stroke="#F55E21" stroke-width="5"/>
</svg>

<svg width="101" height="113" fill="none" xmlns="http://www.w3.org/2000/svg"><path d="M3 93.535l17.274 16.501 8.858-7.136h34.389a23 23 0 0016.71-7.195l15.966-16.88a5.384 5.384 0 00-7.771-7.455l-7.58 7.79a34.228 34.228 0 01-24.533 10.36h-7.692l-3.543-3.567 15.504-4.51a4.98 4.98 0 00-1.39-9.761H33.027a20 20 0 00-14.19 5.906L3 93.535z" stroke="#434343" stroke-width="5" stroke-linejoin="round"/><path d="M88.843 21.563c.457 13.447-21.916 32.652-33.16 39.414-10.862-6.955-33.728-22.025-33.73-39.414C21.951 7.583 41.39-6.26 55.683 11.13c15.438-17.39 32.702-3.015 33.16 10.432z" stroke="#A4BA04" stroke-width="5"/><path d="M73.235 27.534c.237 6.465-11.322 15.698-17.132 18.949-5.612-3.344-17.426-10.59-17.427-18.95-.001-6.72 10.042-13.375 17.427-5.015C64.08 14.158 73 21.07 73.235 27.534z" stroke="#F55E21" stroke-width="5"/></svg>
